X:1
T: The Laddies o' Dunse
C:
R:Jig
Q:180
K:D
M:6/8
L:1/16
B2|A4D2 D2E2D2|D2E2D2 B4B2|B2c2d2 A2F2A2|B2G2E2 E4d2|A4D2 D2E2D2|D2E2D2 B4B2|B2c2d2 A2F2d2|A2F2D2 D4B2|
A4D2 D2E2D2|D2E2D2 B4B2|B2c2d2 A2F2A2|B2G2E2 E4d2|A4D2 D2E2D2|D2E2D2 B4B2|B2c2d2 A2F2d2|A2F2D2 D4g2|
f2e2f2 d4e2|f2g2a2 B4A2|B2c2d2 A2F2A2|B2G2E2 E4g2|f2e2f2 d4e2|f2g2a2 B4A2|B2c2d2 A2F2d2|A2F2D2 D4g2|
f2e2f2 d4e2|f2g2a2 B4A2|B2c2d2 A2F2A2|B2G2E2 E4fg|a2f2a2 g2e2g2|f2d2f2 e2c2e2|d2c2B2 A2F2d2|A2F2D2 D4||
